assets/svg/app/locked.svg

<svg width="93" height="93" viewBox="0 0 93 93" fill="none" xmlns="http://www.w3.org/2000/svg">
<path d="M66.9751 31.0812V22.7562C66.9751 -4.91875 26.4751 -4.91875 26.4751 22.7562V31.0812" stroke="#E0E4EB" stroke-width="4"/>
<g filter="url(#locked_filter)">
<path d="M77.9888 30.1813H15.0113C15.005 30.1813 15 30.1863 15 30.1925V77.42C15 77.4262 15.005 77.4313 15.0113 77.4313H77.9888C77.995 77.4313 78 77.4262 78 77.42V30.1925C78 30.1863 77.995 30.1813 77.9888 30.1813Z" fill="#FFD75C"/>
</g>
<path d="M46.725 55.8312C50.2044 55.8312 53.025 53.0106 53.025 49.5312C53.025 46.0518 50.2044 43.2312 46.725 43.2312C43.2457 43.2312 40.425 46.0518 40.425 49.5312C40.425 53.0106 43.2457 55.8312 46.725 55.8312Z" fill="#29303D"/>
<path d="M48.0749 49.5312H45.3749L41.7749 65.0562H51.6749" fill="#29303D"/>
<defs>
<filter id="locked_filter" x="0" y="15.1813" width="93" height="77.25" filterUnits="userSpaceOnUse" color-interpolation-filters="sRGB">
<feFlood flood-opacity="0" result="BackgroundImageFix"/>
<feColorMatrix in="SourceAlpha" type="matrix" values="0 0 0 0 0 0 0 0 0 0 0 0 0 0 0 0 0 0 127 0"/>
<feOffset/>
<feGaussianBlur stdDeviation="7.5"/>
<feColorMatrix type="matrix" values="0 0 0 0 1 0 0 0 0 0.843137 0 0 0 0 0.360784 0 0 0 0.6 0"/>
<feBlend mode="normal" in2="BackgroundImageFix" result="effect1_dropShadow"/>
<feBlend mode="normal" in="SourceGraphic" in2="effect1_dropShadow" result="shape"/>
</filter>
</defs>
</svg>

<svg width="93" height="93" fill="none" xmlns="http://www.w3.org/2000/svg">
    <path d="M66.975 31.081v-8.325c0-27.675-40.5-27.675-40.5 0v8.325" stroke="#E0E4EB" stroke-width="4"/>
    <g filter="url(#a)">
        <path d="M77.989 30.181H15.01a.011.011 0 0 0-.011.011V77.42c0 .006.005.011.011.011h62.98a.011.011 0 0 0 .01-.011V30.192a.011.011 0 0 0-.011-.01Z" fill="#FFD75C"/>
    </g>
    <path d="M46.725 55.831a6.3 6.3 0 1 0 0-12.6 6.3 6.3 0 0 0 0 12.6Z" fill="#29303D"/>
    <path d="M48.075 49.531h-2.7l-3.6 15.525h9.9" fill="#29303D"/>
    <defs>
        <filter id="a" x="0" y="15.181" width="93" height="77.25" filterUnits="userSpaceOnUse" color-interpolation-filters="sRGB">
            <feFlood flood-opacity="0" result="BackgroundImageFix"/>
            <feColorMatrix in="SourceAlpha" values="0 0 0 0 0 0 0 0 0 0 0 0 0 0 0 0 0 0 127 0"/>
            <feOffset/>
            <feGaussianBlur stdDeviation="7.5"/>
            <feColorMatrix values="0 0 0 0 1 0 0 0 0 0.843137 0 0 0 0 0.360784 0 0 0 0.6 0"/>
            <feBlend in2="BackgroundImageFix" result="effect1_dropShadow"/>
            <feBlend in="SourceGraphic" in2="effect1_dropShadow" result="shape"/>
        </filter>
    </defs>
</svg>
